X:1
T:Title
%%score { ( 1 3 4 ) | ( 2 5 ) }
L:1/8
M:4/4
K:C
V:1 treble nm="Grand Piano"
V:3 treble 
V:4 treble 
V:2 bass 
V:5 bass 
V:1
 z4 z2[Q:1/4=100] [CE]>[DF] | [EG]2 [Ge]2 [FB]2 [Fd]2 | [Ec]>[Fd] [Ec]>[FA] [EG]2 E2 | %3
 F>E F>G B2 A2 | [EG]>[_E^F] [=EG]>[=FA] [EG]2 [CE]>[DF] | [EG]2 [Ge]2 [FB]2 [Fd]2 | %6
 [Ec]>[Fd] [Ec]>[FA] [EG]2 E2 | F>G A>[GB] [Ac]2 [Af]2 |[M:7/8] e>dc>B [Ec]3 |[M:1/4] EF | %10
[M:4/4] z2 E>_E =E2 [Ge][Fd] |[M:3/4] c6 |[M:1/4] [Gc]2 |[M:4/4] [Ac]4 z4 | G4 z4 |[M:3/4] d6 | %16
[M:1/4] ed |[M:4/4] c6 z2 | G3 G A2 B2 |[M:3/4] c6 |] %20
V:2
 z4 z2 [C,G,]>[C,G,] | [C,C]2 [C,C]2 [G,D]2 [F,B,]2 | [C,C]>[C,C] [C,C]>[C,C] [C,C]2 [C,G,C]2 | %3
 [G,D]>[G,C] [G,D]>[G,E] [G,G]2 [G,B,F]2 | [C,C]>[C,C] [C,C]>[C,C] [C,C]2 [C,G,]>[C,G,] | %5
 [C,C]2 [C,C]2 [G,D]2 [G,B,]2 | [C,C]>[C,C] [C,C]>[C,C] [C,C]2 [C,G,C]2 | %7
 [F,A,C]>[F,B,E] [F,CF]>[F,C] [F,C]2 [F,C]2 | %8
[M:7/8][K:treble] [G,CG]>[G,F][K:bass][G,E]>[G,D] [C,G,]3 |[M:1/4] z2 | %10
[M:4/4] z2 [C,G,]>[C,^F,] [C,G,]2 [C,C]2 |[M:3/4] [C,G,]>[C,G,] (3[C,A,][C,G,][C,^F,] [C,G,]2 | %12
[M:1/4] [E,C]2 |[M:4/4] [F,C]2 z[K:treble] G F>G[K:bass] [F,C]2 | %14
 [C,C]>[C,C] [C,C]>[C,C] [C,G,C]2 z2 |[M:3/4] z2 [G,B,]>[G,_B,] [G,=B,]2 |[M:1/4][K:treble] GF | %17
[M:4/4][K:bass] [C,C]>[C,C] (3[C,C][D,C][E,C] [F,C]2[K:treble] [F,CF]2 | %18
 [G,CE]3 [G,CE] [G,B,F]2 [G,F]2 |[M:3/4][K:bass] G,2 z2 z2 |] %20
V:3
 x8 | x8 | x8 | x8 | x8 | x8 | x8 | x8 |[M:7/8] x7 |[M:1/4] x2 |[M:4/4] G6 z2 | %11
[M:3/4] z z/ E/ (3FE_E =E2 |[M:1/4] x2 |[M:4/4] z2 z B A>B [Ac]>[FA] | E>E E>E E2 G2 | %15
[M:3/4] z2 F>E F2 |[M:1/4] x2 |[M:4/4] z z/ E/ (3EFG A2 A2 | x8 |[M:3/4] E>F E>_E =E2 |] %20
V:4
 x8 | x8 | x8 | x8 | x8 | x8 | x8 | x8 |[M:7/8] x7 |[M:1/4] x2 |[M:4/4] x8 |[M:3/4] E2 z2 z2 | %12
[M:1/4] x2 |[M:4/4] z2 C2 z4 | x8 |[M:3/4] x6 |[M:1/4] x2 |[M:4/4] E2 z2 z4 | x8 |[M:3/4] x6 |] %20
V:5
 x8 | x8 | x8 | x8 | x8 | x8 | x8 | x8 |[M:7/8][K:treble] x2[K:bass] x5 |[M:1/4] x2 |[M:4/4] x8 | %11
[M:3/4] x6 |[M:1/4] x2 |[M:4/4] z2 F,2[K:treble] [F,C]2[K:bass] z2 | x8 |[M:3/4] x6 | %16
[M:1/4][K:treble] [G,B,]2 |[M:4/4][K:bass] x6[K:treble] x2 | x8 | %19
[M:3/4][K:bass] C,->[C,A,] [C,G,]>[C,^F,] [C,B,]2 |] %20

